brandFactory_export/1.Light/Camion _1Light.svg

<?xml version="1.0" encoding="UTF-8"?>
<svg width="24px" height="24px" viewBox="0 0 24 24" version="1.1" xmlns="http://www.w3.org/2000/svg" xmlns:xlink="http://www.w3.org/1999/xlink">
    <title>1.Light/Camion _1Light</title>
    <g id="Symbols" stroke="none" stroke-width="1" fill="none" fill-rule="evenodd">
        <g id="1.Light/Camion-_1Light" fill="#5CB615" fill-rule="nonzero">
            <path d="M22.2453782,17.4420168 C21.989916,17.697479 21.6739496,17.8352941 21.3680672,17.8352941 L20.0672269,17.8352941 C19.8521008,16.1411765 18.6689076,15.1394958 16.8067227,15.1394958 C16.5310924,15.1394958 16.2655462,15.1596639 16.0201681,15.210084 L16.0201681,6.63529412 L17.2773109,6.63529412 C17.7512605,6.63529412 18.2621849,6.88739496 18.5277311,7.25378151 C19.0016807,7.89915966 21.6907563,11.4453782 22.0235294,11.8756303 C22.2487395,12.1714286 22.6252101,12.6621849 22.6252101,13.102521 L22.6353502,16.5714286 C22.6386555,16.8739496 22.4907563,17.1966387 22.2453782,17.4420168 Z M16.8067227,20.7260504 C15.2907563,20.7260504 14.4907563,19.9327731 14.4907563,18.4235294 C14.4907563,16.9142857 15.287395,16.1210084 16.8067227,16.1210084 C18.3260504,16.1210084 19.1226891,16.9142857 19.1226891,18.4235294 C19.1226891,19.9327731 18.3226891,20.7260504 16.8067227,20.7260504 Z M13.5462185,17.8352941 L8.24537815,17.8352941 C8.0302521,16.1411765 6.84705882,15.1394958 4.98487395,15.1394958 C3.12605042,15.1394958 1.94957983,16.1411765 1.73445378,17.8352941 L1.5092437,17.8352941 C1.22352941,17.8352941 0.988235294,17.6033613 0.98487395,17.3176471 L0.98487395,3.51932773 C0.98487395,3.23361345 1.22016807,2.99831933 1.50588235,2.99831933 L14.5109244,3.00840336 C14.8067227,3.00840336 15.0352941,3.24369748 15.0352941,3.52941176 L15.0352941,15.5428571 C14.205042,15.9831933 13.6840336,16.7663866 13.5462185,17.8352941 Z M4.98487395,20.7260504 C3.46890756,20.7260504 2.66890756,19.9327731 2.66890756,18.4235294 C2.66890756,16.9142857 3.46554622,16.1210084 4.98487395,16.1210084 C6.50420168,16.1210084 7.30084034,16.9142857 7.30084034,18.4235294 C7.30084034,19.9327731 6.50084034,20.7260504 4.98487395,20.7260504 Z M23.6134454,13.102521 C23.6134454,12.3294118 23.092437,11.6436975 22.8033613,11.2806723 C22.4672269,10.8470588 19.8016807,7.3210084 19.3243697,6.68235294 C18.8705882,6.05378151 18.0638655,5.65378151 17.2773109,5.65378151 L16.0168067,5.65378151 L16.0168067,3.52605042 C16.0168067,2.70252101 15.3445378,2.02689076 14.507563,2.02689076 L1.5092437,2.02016807 C0.668907563,2.02016807 0,2.69579832 0,3.51932773 L0,17.3142857 C0,18.1378151 0.672268908,18.8134454 1.50588235,18.8134454 L1.71428571,18.8134454 C1.86554622,20.6252101 3.05546218,21.7042017 4.98487395,21.7042017 C6.91764706,21.7042017 8.10756303,20.6252101 8.25546218,18.8134454 L13.5361345,18.8134454 C13.6941176,20.6252101 14.8773109,21.7042017 16.8067227,21.7042017 C18.7394958,21.7042017 19.9294118,20.6252101 20.0773109,18.8134454 L21.3680672,18.8134454 C21.9394958,18.8134454 22.5109244,18.5680672 22.9445378,18.1378151 C23.3781513,17.707563 23.6235294,17.1361345 23.6235294,16.5714286 L23.6134454,13.102521 Z" id="Camion-_1Light"></path>
        </g>
    </g>
</svg>

<svg width="24" height="24" viewBox="0 0 24 24" xmlns="http://www.w3.org/2000/svg"><path d="M22.245 17.442c-.255.255-.571.393-.877.393h-1.3c-.216-1.694-1.4-2.696-3.261-2.696-.276 0-.541.02-.787.071V6.635h1.257c.474 0 .985.252 1.25.619a650.97 650.97 0 003.497 4.622c.225.295.601.786.601 1.227l.01 3.468c.004.303-.144.626-.39.871zm-5.438 3.284c-1.516 0-2.316-.793-2.316-2.302 0-1.51.796-2.303 2.316-2.303 1.52 0 2.316.793 2.316 2.303 0 1.509-.8 2.302-2.316 2.302zm-3.26-2.89H8.244c-.215-1.695-1.398-2.697-3.26-2.697-1.859 0-3.035 1.002-3.25 2.696h-.226a.526.526 0 01-.524-.517V3.519c0-.285.235-.52.52-.52l13.006.01a.52.52 0 01.524.52v12.014c-.83.44-1.351 1.223-1.489 2.292zm-8.562 2.89c-1.516 0-2.316-.793-2.316-2.302 0-1.51.797-2.303 2.316-2.303 1.52 0 2.316.793 2.316 2.303 0 1.509-.8 2.302-2.316 2.302zm18.628-7.623c0-.774-.52-1.46-.81-1.822a994.9 994.9 0 01-3.479-4.599c-.453-.628-1.26-1.028-2.047-1.028h-1.26V3.526c0-.823-.672-1.5-1.51-1.5L1.51 2.02C.67 2.02 0 2.696 0 3.52v13.794c0 .824.672 1.5 1.506 1.5h.208c.152 1.811 1.341 2.89 3.27 2.89 1.934 0 3.124-1.079 3.271-2.89h5.281c.158 1.811 1.341 2.89 3.27 2.89 1.933 0 3.123-1.079 3.271-2.89h1.291c.571 0 1.143-.246 1.577-.676.433-.43.679-1.002.679-1.567l-.01-3.468z" fill="#5CB615" fill-rule="nonzero"/></svg>
